X:3
T:03 - The Knight & The Shepherd's Daughter
L:1/8
K:G
Q:1/4=190
R:
M:4/4
D2 | "G"G2 B2 A2 G2 | "D7"F2 E2 D2 A2 | "G"B3 A B2 c2 | "Dsus"d4- "D"d2 d2 | "D/F#"A2 A2 "G"d2 cB |
"Am"A2 A2 c2 BA | "G"G2 B2 A/2B/2A G2 | "D"F8 | "Em"G4 "G/B"D3 D | "D7"DEFD "G"G4- |G2  z4|]

